!!!OTL: DIE GANZE WELT IST EIN ORCHESTER
!!!ARE: Europa, Mitteleuropa, Deutschland
!!!SCT: B0669
!!!YEM: Copyright 1995, estate of Helmut Schaffrath.
**kern
*ICvox
*Ivox
*M3/4
*k[]
*C:
{8G
8A
8B
=1
4.c
8c
8d
8d
=2
4e
4c
8r}
{8e
=3
8.d
16e
8d
8c
8B
8A
=4
4G
8r}
{8G
8A
8B
=5
4.c
8c
8d
8d
=6
4e
4c
8r}
{8e
=7
8.d
16e
8d
8c
8B
8A
=8
4G
8r}
{8G
8G
8G
=9
4.c
8G
8A
8B-
=10
4A
4F
8r}
{8c
=11
8B
8G
8c
8G
8c
8e
=12
4.d}
{8G
8A
8B
=13
4.c
8c
8e
8c
=14
8.c
16A
4A
8r}
{8A
=15
8.G
16G
8G
8G
8A
8B
=16
4c
8r}
==
!!!AGN: Moral - Lied, sozial - kritisch
!!!ONB: ESAC (Essen Associative Code) Database: BOEHME
!!!AMT: simple triple
!!!AIN: vox
!!!EED: Helmut Schaffrath
!!!EEV: 1.0
*-
